src/status/22/xchat-panel.svg

<svg width="22" height="22" viewBox="0 0 22 22" xmlns="http://www.w3.org/2000/svg">
 <path d="m5.015625 1.367188c-0.351563 0-0.71875 0.117187-0.988281 0.386718l-1.933594 1.933594c-0.539062 0.539062-0.539062 1.4375 0 1.976562l1.203125 1.203126h7.820313l-5.113282-5.113282c-0.269531-0.269531-0.636718-0.386718-0.988281-0.386718zm12.632813 0c-0.359376 0-0.71875 0.117187-0.988282 0.386718l-5.113281 5.113282h7.820313l1.203124-1.203126c0.539063-0.539062 0.539063-1.4375 0-1.976562l-1.933593-1.933594c-0.269531-0.269531-0.628907-0.386718-0.988281-0.386718zm-11.15625 6.199218c-0.367188 0.015625-0.65625 0.3125-0.660157 0.675782v4.8125c-0.011719 0.929687 1.386719 0.929687 1.375 0v-2.0625h1.375v2.0625c-0.011719 0.929687 1.386719 0.929687 1.375 0v-2.75c0-0.378907-0.308593-0.6875-0.6875-0.6875h-2.0625v-1.375c-0.003906-0.386719-0.328125-0.695313-0.714843-0.675782zm12.371093 0c-0.359375 0.015625-0.648437 0.3125-0.65625 0.675782v1.375h-0.6875c-0.886719 0.027343-0.886719 1.34375 0 1.375h0.6875v2.0625c0 0.378906 0.308594 0.6875 0.6875 0.6875h2.0625c0.929688 0.011718 0.929688-1.390626 0-1.375h-1.375v-1.375h1.375c0.945313 0.027343 0.945313-1.40625 0-1.375h-1.375v-1.375c-0.003906-0.386719-0.328125-0.691407-0.714843-0.675782zm-17.84375 2.050782c-0.378906 0-0.6875 0.308593-0.6875 0.6875v2.75c0 0.378906 0.308594 0.6875 0.6875 0.6875h2.75c0.929688 0.011718 0.929688-1.390626 0-1.375h-2.0625v-1.375h2.0625c0.929688 0.011718 0.929688-1.390626 0-1.375zm11 0c-0.378906 0-0.6875 0.308593-0.6875 0.6875v2.75c0 0.378906 0.308594 0.6875 0.6875 0.6875h1.03125c0.929688 0.011718 0.929688-1.390626 0-1.375h-0.34375v-1.375h1.375v2.0625c-0.011719 0.929687 1.390625 0.929687 1.375 0v-2.75c0-0.378907-0.308593-0.6875-0.6875-0.6875zm-8.722656 5.5-1.203125 1.203124c-0.539062 0.539063-0.539062 1.4375 0 1.976563l1.933594 1.933594c0.539062 0.539062 1.4375 0.539062 1.976562 0l5.113282-5.113281zm8.25 0 5.113281 5.113281c0.539063 0.539062 1.4375 0.539062 1.976563 0l1.933593-1.933594c0.539063-0.539063 0.539063-1.4375 0-1.976563l-1.203124-1.203124z" fill="rgb(18.039216%, 20.392157%, 25.098041%)" fill-rule="evenodd"/>
</svg>

<?xml version="1.0" encoding="UTF-8"?>
<svg xmlns="http://www.w3.org/2000/svg" xmlns:xlink="http://www.w3.org/1999/xlink" width="22" height="22" viewBox="0 0 22 22">
<path fill-rule="evenodd" fill="rgb(18.039216%, 20.392157%, 25.098041%)" fill-opacity="1" d="M 5.015625 1.367188 C 4.664062 1.367188 4.296875 1.484375 4.027344 1.753906 L 2.09375 3.6875 C 1.554688 4.226562 1.554688 5.125 2.09375 5.664062 L 3.296875 6.867188 L 11.117188 6.867188 L 6.003906 1.753906 C 5.734375 1.484375 5.367188 1.367188 5.015625 1.367188 Z M 17.648438 1.367188 C 17.289062 1.367188 16.929688 1.484375 16.660156 1.753906 L 11.546875 6.867188 L 19.367188 6.867188 L 20.570312 5.664062 C 21.109375 5.125 21.109375 4.226562 20.570312 3.6875 L 18.636719 1.753906 C 18.367188 1.484375 18.007812 1.367188 17.648438 1.367188 Z M 6.492188 7.566406 C 6.125 7.582031 5.835938 7.878906 5.832031 8.242188 L 5.832031 13.054688 C 5.820312 13.984375 7.21875 13.984375 7.207031 13.054688 L 7.207031 10.992188 L 8.582031 10.992188 L 8.582031 13.054688 C 8.570312 13.984375 9.96875 13.984375 9.957031 13.054688 L 9.957031 10.304688 C 9.957031 9.925781 9.648438 9.617188 9.269531 9.617188 L 7.207031 9.617188 L 7.207031 8.242188 C 7.203125 7.855469 6.878906 7.546875 6.492188 7.566406 Z M 18.863281 7.566406 C 18.503906 7.582031 18.214844 7.878906 18.207031 8.242188 L 18.207031 9.617188 L 17.519531 9.617188 C 16.632812 9.644531 16.632812 10.960938 17.519531 10.992188 L 18.207031 10.992188 L 18.207031 13.054688 C 18.207031 13.433594 18.515625 13.742188 18.894531 13.742188 L 20.957031 13.742188 C 21.886719 13.753906 21.886719 12.351562 20.957031 12.367188 L 19.582031 12.367188 L 19.582031 10.992188 L 20.957031 10.992188 C 21.902344 11.019531 21.902344 9.585938 20.957031 9.617188 L 19.582031 9.617188 L 19.582031 8.242188 C 19.578125 7.855469 19.253906 7.550781 18.867188 7.566406 Z M 1.019531 9.617188 C 0.640625 9.617188 0.332031 9.925781 0.332031 10.304688 L 0.332031 13.054688 C 0.332031 13.433594 0.640625 13.742188 1.019531 13.742188 L 3.769531 13.742188 C 4.699219 13.753906 4.699219 12.351562 3.769531 12.367188 L 1.707031 12.367188 L 1.707031 10.992188 L 3.769531 10.992188 C 4.699219 11.003906 4.699219 9.601562 3.769531 9.617188 Z M 12.019531 9.617188 C 11.640625 9.617188 11.332031 9.925781 11.332031 10.304688 L 11.332031 13.054688 C 11.332031 13.433594 11.640625 13.742188 12.019531 13.742188 L 13.050781 13.742188 C 13.980469 13.753906 13.980469 12.351562 13.050781 12.367188 L 12.707031 12.367188 L 12.707031 10.992188 L 14.082031 10.992188 L 14.082031 13.054688 C 14.070312 13.984375 15.472656 13.984375 15.457031 13.054688 L 15.457031 10.304688 C 15.457031 9.925781 15.148438 9.617188 14.769531 9.617188 Z M 3.296875 15.117188 L 2.09375 16.320312 C 1.554688 16.859375 1.554688 17.757812 2.09375 18.296875 L 4.027344 20.230469 C 4.566406 20.769531 5.464844 20.769531 6.003906 20.230469 L 11.117188 15.117188 Z M 11.546875 15.117188 L 16.660156 20.230469 C 17.199219 20.769531 18.097656 20.769531 18.636719 20.230469 L 20.570312 18.296875 C 21.109375 17.757812 21.109375 16.859375 20.570312 16.320312 L 19.367188 15.117188 Z M 11.546875 15.117188 "/>
</svg>
